docs/.gitbook/assets/icon-warning-16@light.svg

<svg width="32" height="32" viewBox="0 0 16 16" fill="none" xmlns="http://www.w3.org/2000/svg">
<rect x="0" y="0" width="16" height="16" fill="#fff"/>
<path fill-rule="evenodd" clip-rule="evenodd" d="M10.8995 2.79286C9.70493 0.402386 6.29497 0.402379 5.10035 2.79285L1.34534 10.3067C0.268025 12.4625 1.83449 15 4.24493 15H11.755C14.1654 15 15.7319 12.4625 14.6546 10.3068L10.8995 2.79286ZM6.44213 3.4634C7.08407 2.17887 8.91583 2.17887 9.55777 3.4634L13.3128 10.9773C13.8922 12.1368 13.0492 13.5 11.755 13.5H4.24493C2.9507 13.5 2.10765 12.1368 2.68712 10.9773L6.44213 3.4634ZM8.74995 6C8.74995 5.58579 8.41416 5.25 7.99995 5.25C7.58573 5.25 7.24995 5.58579 7.24995 6V8C7.24995 8.41421 7.58573 8.75 7.99995 8.75C8.41416 8.75 8.74995 8.41421 8.74995 8V6ZM8 10C7.44772 10 7 10.4477 7 11C7 11.5523 7.44772 12 8 12C8.55228 12 9 11.5523 9 11C9 10.4477 8.55228 10 8 10Z" fill="#000"/>
</svg>

<svg xmlns="http://www.w3.org/2000/svg" width="32" height="32" fill="none" viewBox="0 0 16 16"><path fill="#fff" d="M0 0h16v16H0z"/><path fill="#000" fill-rule="evenodd" d="M10.9 2.793c-1.195-2.39-4.605-2.39-5.8 0l-3.755 7.514C.268 12.463 1.835 15 4.245 15h7.51c2.41 0 3.977-2.537 2.9-4.693zm-4.458.67c.642-1.284 2.474-1.284 3.116 0l3.755 7.514a1.743 1.743 0 0 1-1.558 2.523h-7.51a1.743 1.743 0 0 1-1.558-2.523zM8.75 6a.75.75 0 0 0-1.5 0v2a.75.75 0 1 0 1.5 0zM8 10a1 1 0 1 0 0 2 1 1 0 0 0 0-2" clip-rule="evenodd"/></svg>
